X:3
T:Gloire  Dieu - AL 137
C:M. Wackenheim
M:C
L:1/4
K:D
"Re"DDA2|"Sol"B/B/ A/G/"Re"A3/A/|"Sol"GA/G/"Re"F3/F/|"La"ED/E/"Re"FF|
"Re"DDA2|"Sol"B/B/ A/G/"Re"A2|"La7"GG"Re"F2|"La4"E"La"E"Re"D2||
